X: 139038
T: The RAMBLING PITCHFORK
Q: "Irish Jig."
R: Jig.
%R: jig
B: James Kerr "Merry Melodies" v.1 p.39 s.0 #38
Z: 2016 John Chambers <jc:trillian.mit.edu>
M: 6/8
L: 1/8
K: G	% and Em
E/F/ |\
{A}GFG BGG | dGG BGG | A2B cde | gfe dBA |\
{A}GFG BGG | dGG BAG | A2B cBA | BGE E2 :|
(3B/^c/^d/) |\
e2f gfe | f^dB B^cd | e2f gfe | bag agf |\
e2f gfe | f^dB BAG | vA2vB cBA | BGE E2 |]

%%sep 1 1 500
%%sep 1 1 500

